picto/disposal-of-sanitary-products-framed.svg

<svg class="color-immutable" width="30" height="30" viewBox="0 0 30 30" fill="none" xmlns="http://www.w3.org/2000/svg"><path d="M30 0H0V30H30V0Z" fill="#2D327D"/><path d="M25.5 3C26.325 3 27 3.675 27 4.5V25.5C27 26.325 26.325 27 25.5 27H4.5C3.675 27 3 26.325 3 25.5V4.5C3 3.675 3.675 3 4.5 3H25.5ZM25.5 2.625H4.5C3.46613 2.625 2.625 3.46613 2.625 4.5V25.5C2.625 26.5339 3.46613 27.375 4.5 27.375H25.5C26.5339 27.375 27.375 26.5339 27.375 25.5V4.5C27.375 3.46613 26.5339 2.625 25.5 2.625Z" fill="white"/><path d="M9.04082 17.8969C8.36612 16.8934 7.34192 16.2119 6.15617 15.9768L5.99927 16.7775L9.79554 20.8341C9.88997 19.799 9.62874 18.7712 9.04082 17.8969Z" fill="white"/><path d="M18.767 19.0016C19.9979 18.1739 21.4733 17.8664 22.9297 18.1314L23.4143 15.6577L10.5278 18.3462C10.9239 19.339 11.0293 20.4253 10.8222 21.4993L16.378 22.5877C16.6715 21.1137 17.5193 19.8406 18.767 19.0016Z" fill="white"/><path d="M9.96288 17.2768C9.97308 17.2919 9.98283 17.3073 9.9928 17.3225L16.441 15.9773L7.09338 11.1919L6.36963 14.8863C7.84668 15.1784 9.1225 16.027 9.96288 17.2768Z" fill="white"/><path d="M23.6463 14.4742L24.0021 12.6577L7.44207 9.41348L7.31592 10.0573L18.1737 15.6159L23.6463 14.4742Z" fill="white"/><path d="M17.5964 22.3075L22.5593 20.0217L22.716 19.2219C20.4614 18.82 18.2794 20.1683 17.5964 22.3075Z" fill="white"/></svg>

<svg class="color-immutable" width="30" height="30" viewBox="0 0 30 30" fill="none" xmlns="http://www.w3.org/2000/svg"><g clip-path="url(#a)"><path d="M30 0H0v30h30V0Z" fill="#2D327D"/><path d="M25.5 3c.825 0 1.5.675 1.5 1.5v21c0 .825-.675 1.5-1.5 1.5h-21c-.825 0-1.5-.675-1.5-1.5v-21C3 3.675 3.675 3 4.5 3h21Zm0-.375h-21A1.877 1.877 0 0 0 2.625 4.5v21c0 1.034.841 1.875 1.875 1.875h21a1.877 1.877 0 0 0 1.875-1.875v-21A1.877 1.877 0 0 0 25.5 2.625Z" fill="#fff"/><path d="M9.04 17.897a4.51 4.51 0 0 0-2.884-1.92l-.157.8 3.797 4.057a4.505 4.505 0 0 0-.755-2.937ZM18.767 19.002a5.612 5.612 0 0 1 4.163-.87l.484-2.474-12.886 2.688a5.61 5.61 0 0 1 .294 3.153l5.556 1.089a5.615 5.615 0 0 1 2.389-3.586ZM9.963 17.277l.03.046 6.448-1.346-9.348-4.785-.723 3.694a5.614 5.614 0 0 1 3.593 2.39ZM23.646 14.474l.356-1.816-16.56-3.245-.126.644 10.858 5.559 5.472-1.142Z" fill="#fff"/><path d="m17.596 22.308 4.963-2.286.157-.8a4.547 4.547 0 0 0-5.12 3.085Z" fill="#fff"/></g><defs><clipPath id="a"><path fill="#fff" d="M0 0h30v30H0z"/></clipPath></defs></svg>
